X: 1
T: Over_the_Water_to_Charlie
C:
O: Bremner
S: email from Darlene Wigman 2022-7-10
R: jig
Z: 2022 John Chambers <jc:trillian.mit.edu>
M: 6/8
L: 1/8
K: D
% = = = = = = = = = =
V: 1 staves=2
|:\
A>BA A2G | (TF>EF) D3 | ABA AFA | B3 d3 ||\
D>ED DEF | G2F TE2D | dcB AFA | B3 {Bc}d3 :|
|:\
d2e f2f | e2d (TcBA) | d2e fdg | Te3 A3 ||\
dcd efg | fed Tc>BA | (B/c/d)B AFA | B3 d3 :|
% = = = = = = = = = =
V: 2 clef=bass middle=d
|: d3 d3 | d3 d3 | d3 d3 | d3 d3 || d3 d3 | d3 d3 | d3 d3 | d3 d3 :|
|: d3 d3 | A3 A3 | d3 d3 | a3 a3 || c'3 c'3 | d'3 a3 | g3 f3 | g3 d3 :|
